src/assets/images/icons/upload-cloud-2-line.svg

<svg width="24" height="24" viewBox="0 0 24 24" fill="none" xmlns="http://www.w3.org/2000/svg">
<g clip-path="url(#clip0_58_16268)">
<path d="M12 12.586L16.243 16.828L14.828 18.243L13 16.415V22H11V16.413L9.17202 18.243L7.75702 16.828L12 12.586ZM12 2C13.717 2.00008 15.3741 2.63111 16.6562 3.77312C17.9383 4.91512 18.7561 6.48846 18.954 8.194C20.1983 8.53332 21.2837 9.2991 22.0207 10.3575C22.7576 11.416 23.0992 12.6997 22.9856 13.9844C22.8721 15.2691 22.3107 16.473 21.3996 17.3858C20.4884 18.2986 19.2855 18.8622 18.001 18.978V16.964C18.4612 16.8983 18.9037 16.7416 19.3026 16.503C19.7015 16.2644 20.049 15.9487 20.3246 15.5744C20.6002 15.2001 20.7985 14.7746 20.9079 14.3228C21.0173 13.8711 21.0356 13.402 20.9617 12.9431C20.8879 12.4841 20.7233 12.0445 20.4777 11.6498C20.2321 11.2552 19.9104 10.9134 19.5312 10.6445C19.1521 10.3755 18.7232 10.1848 18.2695 10.0834C17.8159 9.98203 17.3466 9.97203 16.889 10.054C17.0456 9.32489 17.0372 8.56997 16.8642 7.84455C16.6913 7.11913 16.3583 6.44158 15.8896 5.86153C15.4209 5.28147 14.8284 4.81361 14.1555 4.49219C13.4826 4.17078 12.7463 4.00397 12.0005 4.00397C11.2548 4.00397 10.5185 4.17078 9.84554 4.49219C9.17262 4.81361 8.58011 5.28147 8.11142 5.86153C7.64273 6.44158 7.30972 7.11913 7.1368 7.84455C6.96387 8.56997 6.95541 9.32489 7.11202 10.054C6.19967 9.88267 5.25663 10.0808 4.49036 10.6048C3.72409 11.1287 3.19735 11.9357 3.02602 12.848C2.85469 13.7603 3.0528 14.7034 3.57678 15.4697C4.10075 16.2359 4.90767 16.7627 5.82002 16.934L6.00002 16.964V18.978C4.71547 18.8623 3.51242 18.2989 2.60115 17.3862C1.68988 16.4735 1.12834 15.2696 1.01469 13.9848C0.901037 12.7001 1.2425 11.4163 1.97939 10.3578C2.71627 9.29926 3.80172 8.53339 5.04602 8.194C5.24372 6.48838 6.06142 4.91491 7.3436 3.77287C8.62577 2.63082 10.283 1.99986 12 2Z" fill="#181D27"/>
</g>
<defs>
<clipPath id="clip0_58_16268">
<rect width="24" height="24" fill="white"/>
</clipPath>
</defs>
</svg>

<svg xmlns="http://www.w3.org/2000/svg" width="24" height="24" fill="none" viewBox="0 0 24 24"><g clip-path="url(#a)"><path fill="#181d27" d="m12 12.586 4.243 4.242-1.415 1.415L13 16.415V22h-2v-5.587l-1.828 1.83-1.415-1.415zM12 2a7 7 0 0 1 6.954 6.194 5.5 5.5 0 0 1-.953 10.784v-2.014a3.499 3.499 0 1 0-1.112-6.91 5 5 0 1 0-9.777 0 3.5 3.5 0 0 0-1.292 6.88l.18.03v2.014a5.5 5.5 0 0 1-.954-10.784A7 7 0 0 1 12 2"/></g><defs><clipPath id="a"><path fill="#fff" d="M0 0h24v24H0z"/></clipPath></defs></svg>
